fa/svgs/regular/face-grimace.svg

<svg xmlns="http://www.w3.org/2000/svg" viewBox="0 0 512 512"><!--! Font Awesome Free 6.1.1 by @fontawesome - https://fontawesome.com License - https://fontawesome.com/license/free (Icons: CC BY 4.0, Fonts: SIL OFL 1.1, Code: MIT License) Copyright 2022 Fonticons, Inc.--><path d="M344 288c30.9 0 56 25.1 56 56s-25.1 56-56 56H168c-30.9 0-56-25.1-56-56s25.1-56 56-56h176zm-176 32c-13.3 0-24 10.7-24 24s10.7 24 24 24h8v-48h-8zm40 48h32v-48h-32v48zm96-48h-32v48h32v-48zm32 48h8c13.3 0 24-10.7 24-24s-10.7-24-24-24h-8v48zM208.4 208c0 17.7-14.4 32-32 32-17.7 0-32-14.3-32-32s14.3-32 32-32c17.6 0 32 14.3 32 32zm96 0c0-17.7 14.3-32 32-32 17.6 0 32 14.3 32 32s-14.4 32-32 32c-17.7 0-32-14.3-32-32zM0 256C0 114.6 114.6 0 256 0s256 114.6 256 256-114.6 256-256 256S0 397.4 0 256zM256 48C141.1 48 48 141.1 48 256s93.1 208 208 208 208-93.1 208-208S370.9 48 256 48z"/></svg>

<svg xmlns="http://www.w3.org/2000/svg" viewBox="0 0 512 512"><!--! Font Awesome Free 6.2.1 by @fontawesome - https://fontawesome.com License - https://fontawesome.com/license/free (Icons: CC BY 4.0, Fonts: SIL OFL 1.1, Code: MIT License) Copyright 2022 Fonticons, Inc. --><path d="M344 288C374.9 288 400 313.1 400 344C400 374.9 374.9 400 344 400H168C137.1 400 112 374.9 112 344C112 313.1 137.1 288 168 288H344zM168 320C154.7 320 144 330.7 144 344C144 357.3 154.7 368 168 368H176V320H168zM208 368H240V320H208V368zM304 320H272V368H304V320zM336 368H344C357.3 368 368 357.3 368 344C368 330.7 357.3 320 344 320H336V368zM208.4 208C208.4 225.7 194 240 176.4 240C158.7 240 144.4 225.7 144.4 208C144.4 190.3 158.7 176 176.4 176C194 176 208.4 190.3 208.4 208zM304.4 208C304.4 190.3 318.7 176 336.4 176C354 176 368.4 190.3 368.4 208C368.4 225.7 354 240 336.4 240C318.7 240 304.4 225.7 304.4 208zM0 256C0 114.6 114.6 0 256 0C397.4 0 512 114.6 512 256C512 397.4 397.4 512 256 512C114.6 512 0 397.4 0 256zM256 48C141.1 48 48 141.1 48 256C48 370.9 141.1 464 256 464C370.9 464 464 370.9 464 256C464 141.1 370.9 48 256 48z"/></svg>
